X:1
T:What Shall the Harvest Be?
T:Philip Paul Bliss
T:What Shall the Harvest Be?
T:Public Domain
T:Public Domain
T:Public Domain
C:Philip Paul Bliss
Z:Public Domain
%%score ( 1 2 ) ( 3 4 )
L:1/8
M:6/8
K:C
V:1 treble 
V:2 treble 
V:3 bass 
V:4 bass 
V:1
 [CE][DF][^D^F] [EG][CE][Ec] | [FB]2 [FB] [GB]3 | [GB][FA][FA] [FA][EG][EG] | %3
w: 1.~Sow- ing the seed by the|day- light fair,|Sow- ing the seed by the|
w: 2.~Sow- ing the seed by the|way- side high,|Sow- ing the seed on the|
w: 3.~Sow- ing the seed with an|ach- ing heart,|Sow- ing the seed while the|
 ([B,G][C^F])[D=F] [CE]2 z | [CE][DF][^D^F] [EG][CE][Ec] | [Ec]2 [DB] [DB]3 | %6
w: noon- * day glare,|Sow- ing the seed by the|fad- ing light,|
w: rocks * to die.|Sow- ing the seed where the|thorns will spoil,|
w: tear- * drops start,|Sow- ing in hope till the|reap- ers come|
 [DB][B,D][B,D] [B,G][CA][DB] | [DB]2 [CA] [B,G]2 | [B,DF] | [CE][DF][^D^F] [EG]2 [Ec] | %10
w: Sow- ing the seed in the|sol- emn night:|||
w: Sow- ing the seed in the|fer- tile soil:|O|what shall the har- vest|
w: Glad- ly to ga- ther the|har- vest home.|||
 (c2- c [FA][GB])[Ac] | [EG][^D^F][EG] [Ge]2 [=F=d] | [Ec]3- [Ec]2 z || %13
w: |||
w: be? * * * O|shall the har- vest be?|Sown *|
w: |||
"^Refrain" (EEE [EG])[CE][DF] | (EEE [EG])AB | (AAA [Ac])[GB][FA] | (EEE [EG]) z2 | %17
w: ||||
w: in * * * the dark-|or * * * sown in|light, * * * * Sown|our * * *|
w: ||||
 (DDD [DF])[^CE][DF] | (B,B,B, [B,D])EF | (FFF [FA])[EG][DF] | (CCC [CE]) z2 | %21
w: ||||
w: ness * * * * or|in * * * our *|Ga- * * * thered *|time * * *|
w: ||||
 [EG-]3 [EG][^D^F][EG] | ([Ge-]3 [Ge])[Fd][Ec] | ([Ac-]3 [Ac][GB])[FA] | [EG]3- [EG]2 z | %25
w: ||||
w: * e- ter- ni-|ty, * Sure, ah,|* * * sure|will *|
w: ||||
 ([FA-]3 A^G)A | [Ff]3- [Ff]2 A/A/ | ([EG][^D^F][EG] [Ge]2) [=F=d] | (EGF [Ec]3) |] %29
w: ||||
w: the * * har-|be. * * *|||
w: ||||
V:2
 x6 | x6 | x6 | x6 | x6 | x6 | x6 | x5 | x | x6 | F3- x3 | x6 | x6 || G3- x3 | G3- x3 | c3- x3 | %16
w: ||||||||||||||||
w: ||||||||||what|||ness|the|in|
 G3- x3 | F3- x3 | D3- x3 | A3- x3 | E3- x3 | x6 | x6 | x6 | x6 | x3 F3 | x5 F | x6 | c3- x3 |] %29
w: |||||||||||||
w: weak-|sown|might,|in|or|||||vest||||
V:3
 C,B,A, C,A,G, | (D,F,)G, (G,,D,G,) | D,[F,G,B,][F,G,B,] G,,[G,C][G,C] | (G,,A,,)B,, (C,E,G,) | %4
w: ~ ~ ~ ~ ~ ~|~ * ~ ~ * *|~ ~ ~ ~ ~ ~|~ * ~ ~ * *|
 C,B,A, C,G,G, | (G,,D,)G, (G,,D,G,) | G,,G,G, G,,G,G, | (D,E,)^F, (G,D,) | [G,,D,] | %9
w: ~ ~ ~ ~ ~ ~|~ * ~ ~ * *|~ ~ ~ ~ ~ ~|~ * ~ ~ *|~|
 C,B,A, C,G,G, | (F,[A,C][A,C] F,[A,C])[A,C] | G,_A,G, G,,_A,,B,, | (C,G,,E,, C,,2) z || %13
w: ~ ~ ~ ~ ~ ~|in * * * * the|dark- ness or sown in the|light, * * *|
 [C,C][C,C][C,C] [C,C][C,G,][C,C] | [C,C][C,C][C,C] [C,C] z2 | [C,C][C,C][C,C] [C,C][C,C][C,C] | %16
w: Sown in the dark- ness or|sown in the light,|Sown in our weak- ness or|
 [C,C][C,G,][C,G,] [C,G,] z2 | [G,,G,][G,,G,][G,,G,] [G,,G,][G,,G,][G,,G,] | %18
w: sown in our might,|Sown in our weak- ness or|
 [G,,G,][G,,G,][G,,G,] [G,,G,] z2 | [G,,G,][G,,G,][G,,G,] [G,,G,][G,,G,][G,,G,] | %20
w: sown in our might,|Ga- thered in time or e-|
 [C,G,][C,G,][C,G,] [C,G,] z2 | [C,C]3 [C,C]2 [C,C] | [C,C]3 [C,C]2 [C,C] | [F,C]3 [F,C]3 | %24
w: ter- ni- ty, Sure,|ah, sure will|be har- vest,|har- vest~be.|
 [C,C]3- [C,C]2 z | [F,C]3 [F,D]3 | [D,D]3 [F,C]2 [F,C] | ([G,-C]3 [G,B,]2) [G,B,] | %28
w: ||||
 (CB,)A, [C,G,]3 |] %29
w: |
V:4
 C,2 C,2 x2 | x6 | D,2 G,,2 x2 | x6 | C,2 C,2 x2 | x6 | G,,2 G,,2 x2 | x5 | x | C,2 C,2 x2 | x6 | %11
w: ~ ~||~ ~||~ ~||~ ~|||~ Sown||
 x6 | x6 || x6 | x6 | x6 | x6 | x6 | x6 | x6 | x6 | x6 | x6 | x6 | x6 | x6 | x6 | x6 | C,3- x3 |] %29
w: ||||||||||||||||||

